brandFactory_export/3.Masa/Subida dinero_3Masa.svg

<?xml version="1.0" encoding="UTF-8"?>
<svg width="24px" height="24px" viewBox="0 0 24 24" version="1.1" xmlns="http://www.w3.org/2000/svg" xmlns:xlink="http://www.w3.org/1999/xlink">
    <title>3.Masa/Subida dinero_3Masa</title>
    <g id="Symbols" stroke="none" stroke-width="1" fill="none" fill-rule="evenodd">
        <g id="3.Masa/Subida-dinero_3Masa" fill="#5CB615" fill-rule="nonzero">
            <path d="M0.884033613,6.36638655 C0.884033613,5.95294118 1.21680672,5.61680672 1.62352941,5.61680672 L2.07394958,5.61680672 C2.06386555,5.44201681 2.03697479,5.28067227 2.03697479,5.09579832 C2.03697479,5.04537815 2.04705882,5.00168067 2.04705882,4.9512605 L1.62016807,4.9512605 C1.21008403,4.9512605 0.880672269,4.61512605 0.880672269,4.20168067 C0.880672269,3.78823529 1.21344538,3.45210084 1.62016807,3.45210084 L2.23865546,3.45210084 C2.76302521,1.28739496 4.37983193,0.100840336 6.95798319,0.100840336 C7.92268908,0.100840336 8.76302521,0.265546218 9.45882353,0.594957983 C9.82857143,0.769747899 9.98991597,1.21680672 9.81848739,1.59327731 C9.64705882,1.9697479 9.2,2.13445378 8.83697479,1.95966387 C8.33613445,1.72436975 7.70420168,1.60336134 6.95798319,1.60336134 C5.24369748,1.60336134 4.20504202,2.20168067 3.76470588,3.45210084 L6.20840336,3.45210084 C6.61848739,3.45210084 6.94789916,3.78823529 6.94789916,4.20168067 C6.94789916,4.61512605 6.61512605,4.9512605 6.20840336,4.9512605 L3.52605042,4.9512605 C3.52605042,5.00168067 3.51596639,5.04537815 3.51596639,5.09579832 C3.51596639,5.28067227 3.53613445,5.44537815 3.54621849,5.61680672 L6.20840336,5.61680672 C6.61848739,5.61680672 6.94789916,5.95294118 6.94789916,6.36638655 C6.94789916,6.77983193 6.61512605,7.11596639 6.20840336,7.11596639 L3.92941176,7.11596639 C4.43697479,8.10420168 5.42521008,8.58823529 6.95798319,8.58823529 C7.71428571,8.58823529 8.34957983,8.46722689 8.85378151,8.22521008 C9.22352941,8.04705882 9.66386555,8.21176471 9.83865546,8.58487395 C10.0134454,8.96134454 9.85546218,9.40840336 9.48571429,9.58655462 C8.78319328,9.92268908 7.93277311,10.0941176 6.95798319,10.0941176 C4.53109244,10.0941176 2.94453782,9.0487395 2.32941176,7.12268908 L1.62016807,7.12268908 C1.21344538,7.11596639 0.884033613,6.77983193 0.884033613,6.36638655 Z M15.189916,5.69411765 C14.8369748,5.69411765 14.5210084,5.48907563 14.3663866,5.15966387 C14.2117647,4.82689076 14.2588235,4.43361345 14.487395,4.14789916 L18.2588235,0.28907563 C18.3563025,0.157983193 18.5747899,0.0336134454 18.8168067,0.00672268908 C19.0621849,-0.0235294118 19.3008403,0.0504201681 19.4890756,0.205042017 C19.5294118,0.238655462 19.5932773,0.302521008 19.6268908,0.342857143 L23.287395,4.10084034 C23.5596639,4.43361345 23.6067227,4.8302521 23.4521008,5.15966387 C23.297479,5.48907563 22.9815126,5.69411765 22.6252101,5.69411765 L21.2504202,5.70420168 L21.2537815,8.07731092 C21.2537815,8.81344538 20.6655462,9.40840336 19.9428571,9.40840336 L17.8823529,9.40840336 C17.1596639,9.40840336 16.5714286,8.81344538 16.5714286,8.08067227 L16.5680672,5.70756303 L15.189916,5.69411765 L15.189916,5.69411765 Z M21.4151261,21.8420168 C22.0504202,21.6504202 22.1445378,21.4521008 22.1445378,21.4521008 L22.1445378,20.4302521 C22.0470588,20.4705882 21.9529412,20.5142857 21.8453782,20.5478992 C21.1193277,20.7697479 20.1815126,20.8907563 19.2,20.8907563 C18.2184874,20.8907563 17.2806723,20.7697479 16.5546218,20.5478992 C16.4436975,20.5142857 16.3495798,20.4705882 16.2487395,20.4302521 L16.2487395,21.4554622 C16.2621849,21.4823529 16.3731092,21.6605042 16.9747899,21.8453782 C18.1478992,22.2016807 20.2319328,22.2016807 21.4151261,21.8420168 Z M14.0369748,21.8453782 C14.4201681,21.7277311 14.6521008,21.5731092 14.7596639,21.4689076 L14.7596639,20.389916 C14.6621849,20.4268908 14.5714286,20.4705882 14.4638655,20.5042017 C13.7411765,20.7260504 12.8,20.8470588 11.8184874,20.8470588 C10.8369748,20.8470588 9.89915966,20.7260504 9.17310924,20.5042017 C9.05882353,20.4705882 8.96470588,20.4235294 8.8605042,20.3831933 L8.8605042,21.4789916 C8.95462185,21.5663866 9.17310924,21.7176471 9.59663866,21.8487395 C10.7764706,22.2016807 12.8672269,22.2016807 14.0369748,21.8453782 Z M6.65546218,21.8453782 C7.06554622,21.7210084 7.28067227,21.5596639 7.38151261,21.4621849 L7.38151261,20.4 C7.28067227,20.4369748 7.19327731,20.4806723 7.08235294,20.5142857 C6.35966387,20.7361345 5.41848739,20.8571429 4.43697479,20.8571429 C3.45546218,20.8571429 2.51428571,20.7361345 1.79159664,20.5142857 C1.67731092,20.4806723 1.58319328,20.4336134 1.4789916,20.3932773 L1.4789916,21.4722689 C1.5697479,21.5630252 1.78823529,21.7109244 2.21848739,21.8420168 C3.39495798,22.205042 5.48571429,22.2016807 6.65546218,21.8453782 Z M2.21176471,18.605042 C1.93613445,18.6890756 1.77478992,18.7697479 1.66386555,18.8403361 C1.77478992,18.9109244 1.94957983,18.994958 2.21848739,19.0756303 C3.39495798,19.4319328 5.4789916,19.4352941 6.65546218,19.0756303 C6.91428571,18.994958 7.08907563,18.9142857 7.20336134,18.8436975 C7.09579832,18.7764706 6.93109244,18.692437 6.65210084,18.605042 C5.47563025,18.2453782 3.38823529,18.2453782 2.21176471,18.605042 Z M9.59327731,15.8218487 C9.33109244,15.902521 9.15966387,15.9865546 9.0487395,16.0537815 C9.15630252,16.1243697 9.31764706,16.2084034 9.6,16.292437 C10.7764706,16.6487395 12.8672269,16.6487395 14.0369748,16.292437 C14.2991597,16.2117647 14.4705882,16.1310924 14.5848739,16.0605042 C14.4773109,15.989916 14.3159664,15.9058824 14.0336134,15.8218487 C12.8605042,15.4655462 10.7697479,15.4655462 9.59327731,15.8218487 Z M16.9714286,13.092437 C16.7058824,13.1731092 16.5378151,13.2537815 16.4268908,13.3243697 C16.5344538,13.394958 16.6991597,13.4789916 16.9815126,13.5630252 C18.1546218,13.9193277 20.2420168,13.9226891 21.4184874,13.5630252 C21.6806723,13.4823529 21.8521008,13.4016807 21.9663866,13.3310924 C21.8588235,13.2605042 21.6941176,13.1798319 21.4151261,13.092437 C20.2352941,12.7327731 18.1512605,12.7294118 16.9714286,13.092437 L16.9714286,13.092437 Z M16.2453782,17.6504202 L16.2453782,18.7462185 C16.3394958,18.8369748 16.5613445,18.9848739 16.9781513,19.1092437 C18.1579832,19.4689076 20.2386555,19.4689076 21.4184874,19.1092437 C21.8084034,18.9882353 22.0403361,18.8302521 22.1445378,18.7260504 L22.1445378,17.6504202 C22.0436975,17.6907563 21.9529412,17.7344538 21.8453782,17.7680672 C21.1260504,17.9865546 20.1848739,18.1109244 19.2,18.1109244 C18.2151261,18.1109244 17.2773109,17.989916 16.5546218,17.7680672 C16.4403361,17.7344538 16.3462185,17.687395 16.2453782,17.6504202 Z M16.5512605,15.0016807 C16.4369748,14.9680672 16.3428571,14.9210084 16.2386555,14.8806723 L16.2386555,15.9596639 C16.3327731,16.0504202 16.5478992,16.1983193 16.9781513,16.3294118 C18.1546218,16.6890756 20.2420168,16.6890756 21.4151261,16.3294118 C21.8252101,16.205042 22.0436975,16.0436975 22.1411765,15.9462185 L22.1411765,14.8840336 C22.0403361,14.9243697 21.9529412,14.9647059 21.8420168,14.9983193 C21.1159664,15.2201681 20.1781513,15.3411765 19.1966387,15.3411765 C18.2151261,15.3411765 17.2773109,15.2201681 16.5512605,15.0016807 L16.5512605,15.0016807 Z M8.8605042,18.692437 C8.95462185,18.7831933 9.17310924,18.9310924 9.6,19.0621849 C10.7798319,19.4184874 12.8605042,19.4218487 14.0369748,19.0621849 C14.4436975,18.9378151 14.6588235,18.7831933 14.7563025,18.6823529 L14.7563025,17.6168067 C14.6588235,17.6537815 14.5680672,17.697479 14.4605042,17.7310924 C13.7411765,17.9529412 12.8,18.0739496 11.8151261,18.0739496 C10.8302521,18.0739496 9.89243697,17.9529412 9.1697479,17.7310924 C9.05546218,17.6941176 8.96134454,17.6504202 8.85714286,17.610084 L8.85714286,18.692437 L8.8605042,18.692437 Z M21.8386555,11.6537815 C23.3142857,12.1042017 23.6235294,12.9008403 23.6235294,13.4890756 L23.6235294,21.4453782 C23.6235294,22.0336134 23.3142857,22.8302521 21.8386555,23.2806723 C21.112605,23.502521 20.1714286,23.6235294 19.189916,23.6235294 C18.2084034,23.6235294 17.2705882,23.502521 16.5445378,23.2806723 C16.0907563,23.1428571 15.7579832,22.9680672 15.4991597,22.7798319 C15.2134454,22.9848739 14.8638655,23.1563025 14.4638655,23.2806723 C13.7445378,23.502521 12.8033613,23.6235294 11.8184874,23.6235294 C10.8336134,23.6235294 9.89579832,23.502521 9.17310924,23.2806723 C8.74957983,23.1529412 8.39663866,22.9815126 8.11428571,22.7798319 C7.82857143,22.9848739 7.48235294,23.1563025 7.08235294,23.2806723 C6.36302521,23.502521 5.42184874,23.6235294 4.43697479,23.6235294 C3.45210084,23.6235294 2.51092437,23.502521 1.79159664,23.2806723 C1.09915966,23.0689076 0.591596639,22.7495798 0.285714286,22.3529412 C0.114285714,22.2151261 3.55271368e-15,22.0134454 3.55271368e-15,21.7747899 L3.55271368e-15,19.0016807 C3.55271368e-15,18.8605042 0.0201680672,18.7159664 0.0571428571,18.5815126 L0.0571428571,18.5781513 C0.242016807,17.9361345 0.823529412,17.4621849 1.78487395,17.1697479 C3.2302521,16.7294118 5.63361345,16.7294118 7.0789916,17.1697479 C7.18991597,17.2033613 7.28403361,17.2436975 7.38151261,17.2806723 L7.38151261,16.2218487 C7.38151261,16.0739496 7.40168067,15.9327731 7.44201681,15.7983193 C7.62352941,15.1563025 8.20504202,14.6823529 9.16638655,14.389916 C10.6117647,13.9462185 13.0184874,13.9462185 14.4605042,14.389916 C14.5714286,14.4235294 14.6621849,14.4605042 14.7596639,14.5008403 L14.7596639,13.492437 C14.7596639,13.3478992 14.7798319,13.2033613 14.8201681,13.0689076 C15.005042,12.4268908 15.5831933,11.9529412 16.5445378,11.6605042 C17.9932773,11.210084 20.3932773,11.210084 21.8386555,11.6537815 L21.8386555,11.6537815 Z" id="Subida-dinero_3Masa"></path>
        </g>
    </g>
</svg>

<svg width="24" height="24" viewBox="0 0 24 24" xmlns="http://www.w3.org/2000/svg"><path d="M.884 6.366c0-.413.333-.75.74-.75h.45c-.01-.174-.037-.335-.037-.52 0-.05.01-.094.01-.145H1.62a.744.744 0 01-.74-.75c0-.413.333-.749.74-.749h.619C2.763 1.287 4.379.101 6.958.101c.965 0 1.805.165 2.5.494.37.175.532.622.36.998a.736.736 0 01-.981.367c-.5-.236-1.133-.357-1.879-.357-1.714 0-2.753.599-3.193 1.85h2.443c.41 0 .74.335.74.749 0 .413-.333.75-.74.75H3.526c0 .05-.01.093-.01.144 0 .185.02.35.03.52h2.662c.41 0 .74.337.74.75 0 .414-.333.75-.74.75H3.93c.508.988 1.496 1.472 3.029 1.472.756 0 1.392-.12 1.896-.363a.736.736 0 01.985.36.757.757 0 01-.353 1.002c-.703.336-1.553.507-2.528.507-2.427 0-4.013-1.045-4.629-2.971H1.62a.753.753 0 01-.736-.757zm14.306-.672a.908.908 0 01-.824-.534.969.969 0 01.121-1.012L18.26.289c.097-.131.316-.255.558-.282a.883.883 0 01.672.198c.04.034.104.098.138.138l3.66 3.758c.273.333.32.73.165 1.059a.91.91 0 01-.827.534l-1.375.01.004 2.373c0 .736-.588 1.331-1.311 1.331h-2.06a1.32 1.32 0 01-1.312-1.327l-.003-2.373-1.378-.014zm6.225 16.148c.635-.192.73-.39.73-.39V20.43c-.098.04-.192.084-.3.118-.726.222-1.663.343-2.645.343s-1.92-.121-2.645-.343c-.111-.034-.205-.077-.306-.118v1.025c.013.027.124.206.726.39 1.173.357 3.257.357 4.44-.003zm-7.378.003c.383-.117.615-.272.723-.376v-1.08c-.098.038-.189.082-.296.115-.723.222-1.664.343-2.646.343-.981 0-1.919-.12-2.645-.343-.114-.033-.208-.08-.312-.12v1.095c.094.087.312.239.736.37 1.18.353 3.27.353 4.44-.004zm-7.382 0c.41-.124.626-.285.727-.383V20.4c-.101.037-.189.08-.3.114-.722.222-1.664.343-2.645.343-.982 0-1.923-.12-2.645-.343-.115-.033-.209-.08-.313-.12v1.078c.09.091.31.239.74.37 1.176.363 3.267.36 4.436.003zm-4.443-3.24a2.175 2.175 0 00-.548.235c.11.07.286.155.554.236 1.177.356 3.261.36 4.437 0 .26-.081.434-.162.548-.232a2.332 2.332 0 00-.55-.239c-1.177-.36-3.265-.36-4.441 0zm7.381-2.783c-.262.08-.433.165-.544.232.107.07.269.154.551.238 1.176.357 3.267.357 4.437 0 .262-.08.434-.16.548-.231a2.028 2.028 0 00-.551-.24c-1.173-.355-3.264-.355-4.44 0zm7.378-2.73c-.265.081-.433.162-.544.232.107.071.272.155.555.239 1.173.356 3.26.36 4.436 0 .263-.08.434-.161.548-.232a2.198 2.198 0 00-.55-.239c-1.18-.36-3.265-.363-4.445 0zm-.726 4.558v1.096c.094.091.316.239.733.363 1.18.36 3.26.36 4.44 0 .39-.12.622-.279.727-.383V17.65c-.101.04-.192.084-.3.118-.719.219-1.66.343-2.645.343-.985 0-1.923-.121-2.645-.343-.115-.034-.209-.08-.31-.118zm.306-2.648c-.114-.034-.208-.081-.312-.121v1.079c.094.09.309.238.74.37 1.176.36 3.263.36 4.436 0 .41-.125.629-.286.726-.384v-1.062c-.1.04-.188.08-.299.114-.726.222-1.664.343-2.645.343-.982 0-1.92-.12-2.646-.34zm-7.69 3.69c.094.091.312.24.739.37 1.18.356 3.26.36 4.437 0 .407-.124.622-.279.72-.38v-1.065c-.098.037-.189.08-.296.114-.72.222-1.661.343-2.646.343-.985 0-1.923-.121-2.645-.343-.115-.037-.209-.08-.313-.12v1.081h.004zm12.978-7.038c1.475.45 1.785 1.247 1.785 1.835v7.956c0 .589-.31 1.385-1.785 1.836-.726.222-1.668.343-2.65.343-.98 0-1.918-.121-2.644-.343a3.444 3.444 0 01-1.046-.501 3.618 3.618 0 01-1.035.5c-.72.223-1.66.344-2.646.344-.984 0-1.922-.121-2.645-.343a3.605 3.605 0 01-1.059-.501 3.597 3.597 0 01-1.032.5c-.719.223-1.66.344-2.645.344-.985 0-1.926-.121-2.645-.343-.693-.212-1.2-.531-1.506-.928A.736.736 0 010 21.775v-2.773c0-.141.02-.286.057-.42v-.004c.185-.642.767-1.116 1.728-1.408 1.445-.44 3.849-.44 5.294 0 .11.033.205.074.303.11v-1.058c0-.148.02-.29.06-.424.182-.642.763-1.116 1.724-1.408 1.446-.444 3.852-.444 5.295 0 .11.034.201.07.299.11v-1.008c0-.144.02-.289.06-.423.185-.642.763-1.116 1.725-1.408 1.448-.45 3.848-.45 5.294-.007z" fill="#5CB615" fill-rule="nonzero"/></svg>
